X:3
T: L\"andler FCBb (solo)
M:3/4
L:1/8
K:F %%MIDI gchordon
CC |: CF FA Ac | fe dGB2 | gf eGc2 | ag fAc2 | CF FA Ac | fe dGB2 | gf eG ce |1 f2z2CC :|2 f2z2ag ||  
|: [K:C]
g2GB df | eG ce gc' | b2dg bd' | c'e gc' ba | g2GB df | eG ce gc' | b2dg bd' |1 c'2z2ag :|2 c'2z2c'_b ||  
|: [K:F] 
ac fc ac | be gbc2 | bc ec gc | ac fa c'b | ac fc ac | be gbc2 | bc ec gc |1 f2z2c'b :|2 f2"_fine"z2f_e ||  
|: [K:Bb] 
df _ef gf | bd gb ag | Te2A2A2 | Tf2A2A2 | B,D FB df | bd fb ag | Tf2A2A2 |1 B2z2fe :|2 B2z2 dc || 
|: c2 =eg ce | c2fa cf | c2 =eg bd' | c'b ag f=e | df =ef gf | bd fb ag | f2A2A2 |1 B2z2dc :|2 B2z2z2 |] 

